packages/components/icon/src/assets/icons/document.svg

<svg width="24" height="24" viewBox="0 0 24 24" fill="none" xmlns="http://www.w3.org/2000/svg">
<path fill-rule="evenodd" clip-rule="evenodd" d="M20 21.0469C20 21.2457 19.9325 21.4126 19.7976 21.5476C19.6626 21.6825 19.4957 21.75 19.2969 21.75H5.70312C5.51846 21.75 5.35511 21.6825 5.21307 21.5476C5.07102 21.4126 5 21.2457 5 21.0469V3.70312C5 3.50426 5.07102 3.33736 5.21307 3.20241C5.35511 3.06747 5.51846 3 5.70312 3H15.7812L20 7.21875V21.0469ZM18.5938 20.3438V8.15625H14.8438V4.40625H6.40625V20.3438H18.5938Z" fill="currentColor"/>
</svg>

<svg viewBox="0 0 24 24" fill="none" xmlns="http://www.w3.org/2000/svg"><path fill-rule="evenodd" clip-rule="evenodd" d="M20 21.047a.68.68 0 0 1-.202.5.68.68 0 0 1-.501.203H5.703a.691.691 0 0 1-.49-.202.663.663 0 0 1-.213-.501V3.703a.66.66 0 0 1 .213-.5.69.69 0 0 1 .49-.203h10.078L20 7.219v13.828Zm-1.406-.703V8.156h-3.75v-3.75H6.406v15.938h12.188Z" fill="currentColor"/></svg>
